X: 34514
T: Rights Of Man, The
R: hornpipe
M: 4/4
K: Eminor
|:G>A|B>cA>B G>AF>G|E>FG>A B2e>f|g>fe>d B>gf>g|(3ege d>B A2G>A|
B>cA>B G>AF>G|E>FG>A B2e>f|g>fe>d B>A (3Bcd|e2 E2 E2:|
|:g>a|b>ab>g e>fg>a|b>ab>g e>gf>e|d>AF>A d>cd>e|a>fd>f a2g>f|
e>de>f g>fg>a|(3bag a>f g2 e>f|g>fe>d B>A (3Bcd|e2 E2 E2:|

